!!!!SEGMENT: pl-wtm--r-71-n--004_noskowski-zygmunt--powrot-suita-krakowiakow-moderato.krn
!!!cenid: 18xx:2114
!!!COM: Noskowski, Zygmunt
!!!COM-rismid: pe106604
!!!CDT: 1846/05/02-1909/07/23
!!!CNT: Polish
!!!OPR: Powrót - Suita krakowiaków
!!!OTL: Moderato
!!!OMV: 004
!!!PDT: 1894
!!!AGN: Secular
!!!SMS-siglum: PL-Wtm
!!!SMS-shelfmark: R 71/N
!!!SMS-shelfwork: 001-004 M
!!!SMS-variant:
!!!SMS-altvar:
!!!NIFC-rismid: 1001096000
!!!URL-scan: http://repozytorium.nifc.pl/skany/pl-wtm-nut--r71n
!!!ONB-nifc: UWAGA: Numeracja krakowiaków zgodna z kolejnością źródłową (I-VIII)
!!!AIN: 1 alto 3 empty 1 soprn 2 tenor
!!!key:
**kern	**kern	**dynam	**kern	**kern	**dynam	**kern	**dynam	**kern	**dynam	**kern	**text	**dynam	**kern	**text	**dynam	**kern	**text	**dynam
*part8	*part8	*part8	*part7	*part7	*part7	*part5	*part5	*part4	*part4	*part3	*part3	*part3	*part2	*part2	*part2	*part1	*part1	*part1
*staff9	*staff8	*	*staff7	*staff6	*	*staff5	*	*staff4	*	*staff3	*staff3	*	*staff2	*staff2	*	*staff1	*staff1	*
*	*	*	*	*	*	*group1	*	*group1	*	*group1	*	*	*group1	*	*	*	*	*
*Iempty	*Ipiano	*	*Iempty	*Ipiano	*	*Iempty	*	*Itenor	*	*Ialto	*	*	*Isoprn	*	*	*Itenor	*	*
*	*I"Pianoforte 2do	*	*	*I"Pianoforte 1mo	*	*I"Bas	*	*I"Ten	*	*I"Alt	*	*	*I"Sopran	*	*	*I"Solo Tenor	*	*
*	*	*	*	*	*	*I'B.	*	*I'T.	*	*I'A.	*	*	*I'S.	*	*	*I'Solo	*	*
*	*	*	*	*	*	*	*	*ITrd7c12	*	*	*	*	*	*	*	*ITrd7c12	*	*
*clefF4	*clefF4	*	*clefG2	*clefG2	*	*clefF4	*	*clefG	*	*clefG2	*	*	*clefG2	*	*	*clefG2	*	*
*k[b-]	*k[b-]	*	*k[b-]	*k[b-]	*	*k[b-]	*	*k[b-]	*	*k[b-]	*	*	*k[b-]	*	*	*k[b-]	*	*
*F:	*F:	*	*F:	*F:	*	*F:	*	*F:	*	*F:	*	*	*F:	*	*	*F:	*	*
*M2/4	*M2/4	*	*M2/4	*M2/4	*	*M2/4	*	*M2/4	*	*M2/4	*	*	*M2/4	*	*	*M2/4	*	*
=1	=1	=1	=1	=1	=1	=1	=1	=1	=1	=1	=1	=1	=1	=1	=1	=1	=1	=1
!	!LO:TX:a:Bi:t=Moderato	!	!	!LO:TX:a:Bi:t=Moderato	!	!	!	!	!	!	!	!	!	!	!	!LO:TX:a:B:t=Moderato	!	!
2C 2FF/	8r	p	2r	2r	.	2ryy	.	2ryy	.	2ryy	.	.	2ryy	.	.	2r	.	.
.	(16cLL 16F\	<	.	.	.	.	.	.	.	.	.	.	.	.	.	.	.	.
.	16dJJ 16A\	.	.	.	.	.	.	.	.	.	.	.	.	.	.	.	.	.
.	16cLL 16F\	[	.	.	.	.	.	.	.	.	.	.	.	.	.	.	.	.
.	.	>	.	.	.	.	.	.	.	.	.	.	.	.	.	.	.	.
.	16dJ 16A\	.	.	.	.	.	.	.	.	.	.	.	.	.	.	.	.	.
.	8cJ 8F\)	]]	.	.	.	.	.	.	.	.	.	.	.	.	.	.	.	.
=2	=2	=2	=2	=2	=2	=2	=2	=2	=2	=2	=2	=2	=2	=2	=2	=2	=2	=2
*rep	*rep	*	*	*	*	*	*	*	*	*	*	*	*	*	*	*	*	*
2C 2FF/	8r	py	2r	2r	.	2ryy	.	2ryy	.	2ryy	.	.	2ryy	.	.	2r	.	.
.	(16cLL 16F\	<	.	.	.	.	.	.	.	.	.	.	.	.	.	.	.	.
.	16dJJ 16A\	.	.	.	.	.	.	.	.	.	.	.	.	.	.	.	.	.
.	16cLL 16F\	[	.	.	.	.	.	.	.	.	.	.	.	.	.	.	.	.
.	.	>	.	.	.	.	.	.	.	.	.	.	.	.	.	.	.	.
.	16dJ 16A\	.	.	.	.	.	.	.	.	.	.	.	.	.	.	.	.	.
.	8cJ 8F\)	]]	.	.	.	.	.	.	.	.	.	.	.	.	.	.	.	.
*Xrep	*Xrep	*	*	*	*	*	*	*	*	*	*	*	*	*	*	*	*	*
=3	=3	=3	=3	=3	=3	=3	=3	=3	=3	=3	=3	=3	=3	=3	=3	=3	=3	=3
*rep	*rep	*	*	*	*	*	*	*	*	*	*	*	*	*	*	*	*	*
!	!	!	!	!LO:TX:b:i:t=espressivo	!LO:DY:rj	!	!	!	!	!	!	!	!	!	!	!LO:TX:a:i:t=espressivo	!	!LO:DY:a:rj
2C 2FF/	8r	py	(16cc\LL	(16ccc\LL	p	2ryy	.	2ryy	.	2ryy	.	.	2ryy	.	.	16c\	Sto-	p
.	.	.	16b-\JJ	16bb-\JJ	.	.	.	.	.	.	.	.	.	.	.	16B-\	-i	.
.	(16cLL 16F\	<	4a/	4aa\	.	.	.	.	.	.	.	.	.	.	.	4A/	dziew-	.
.	16dJJ 16A\	.	.	.	.	.	.	.	.	.	.	.	.	.	.	.	.	.
.	16cLL 16F\	[	.	.	.	.	.	.	.	.	.	.	.	.	.	.	.	.
.	.	>	.	.	.	.	.	.	.	.	.	.	.	.	.	.	.	.
.	16dJ 16A\	.	.	.	.	.	.	.	.	.	.	.	.	.	.	.	.	.
.	8cJ 8F\)	]]	8ee\)	8eee\)	.	.	.	.	.	.	.	.	.	.	.	8e\	-czę	.
*Xrep	*Xrep	*	*	*	*	*	*	*	*	*	*	*	*	*	*	*	*	*
=4	=4	=4	=4	=4	=4	=4	=4	=4	=4	=4	=4	=4	=4	=4	=4	=4	=4	=4
*rep	*rep	*	*	*	*	*	*	*	*	*	*	*	*	*	*	*	*	*
2C 2FF/	8r	py	(8dd\	(8ddd\	.	2ryy	.	2ryy	.	2ryy	.	.	2ryy	.	.	8d\	sto-	.
.	(16cLL 16F\	<	4cc\)	4ccc\)	.	.	.	.	.	.	.	.	.	.	.	4c\	-i	.
.	16dJJ 16A\	.	.	.	.	.	.	.	.	.	.	.	.	.	.	.	.	.
.	16cLL 16F\	[	.	.	.	.	.	.	.	.	.	.	.	.	.	.	.	.
.	.	>	.	.	.	.	.	.	.	.	.	.	.	.	.	.	.	.
.	16dJ 16A\	.	.	.	.	.	.	.	.	.	.	.	.	.	.	.	.	.
.	8cJ 8F\)	]]	8a/	8aa\	.	.	.	.	.	.	.	.	.	.	.	8A/	Za	.
*Xrep	*Xrep	*	*	*	*	*	*	*	*	*	*	*	*	*	*	*	*	*
=5	=5	=5	=5	=5	=5	=5	=5	=5	=5	=5	=5	=5	=5	=5	=5	=5	=5	=5
2C 2FF/	8r	.	(16b-\LL	(16bb-\LL	.	2ryy	.	2ryy	.	2ryy	.	.	2ryy	.	.	(16B-\LL	wio-	.
.	.	.	16cc\JJ	16ccc\JJ	.	.	.	.	.	.	.	.	.	.	.	16c\JJ)	.	.
.	(16cLL 16E\	<	4dd\)	4ddd\)	.	.	.	.	.	.	.	.	.	.	.	4d\	-ską	.
.	16dJJ 16B-\	.	.	.	.	.	.	.	.	.	.	.	.	.	.	.	.	.
.	16cLL 16E\	[ >	.	.	.	.	.	.	.	.	.	.	.	.	.	.	.	.
.	16dJ 16B-\	.	.	.	.	.	.	.	.	.	.	.	.	.	.	.	.	.
.	8cJ 8E\)	]	(16g/LL	(16gg\LL	.	.	.	.	.	.	.	.	.	.	.	(16G/LL	u	.
.	.	.	16b-/JJ	16bb-\JJ	.	.	.	.	.	.	.	.	.	.	.	16B-/JJ)	.	.
=6	=6	=6	=6	=6	=6	=6	=6	=6	=6	=6	=6	=6	=6	=6	=6	=6	=6	=6
2C 2FF/	8r	.	8a/)	8aa\)	.	2ryy	.	2ryy	.	2ryy	.	.	2ryy	.	.	8A/	dro-	.
.	(16cLL 16F\	<	4f/	4ff\	.	.	.	.	.	.	.	.	.	.	.	4F/	-gi	.
.	16dJJ 16A\	.	.	.	.	.	.	.	.	.	.	.	.	.	.	.	.	.
.	16cLL 16F\	[ >	.	.	.	.	.	.	.	.	.	.	.	.	.	.	.	.
.	16dJ 16A\	.	.	.	.	.	.	.	.	.	.	.	.	.	.	.	.	.
.	8cJ 8F\)	]]	8r	8r	.	.	.	.	.	.	.	.	.	.	.	8r	.	.
!!LO:PB:g=original
=7	=7	=7	=7	=7	=7	=7	=7	=7	=7	=7	=7	=7	=7	=7	=7	=7	=7	=7
2D 2DD/	8r	.	(8.f/L	(8.ff\L	.	2ryy	.	2ryy	.	2ryy	.	.	2ryy	.	.	8.F/	Dro-	.
.	(16BnLL 16F\	.	.	.	.	.	.	.	.	.	.	.	.	.	.	.	.	.
.	16A\JJ	.	16g/Jk	16gg\Jk	.	.	.	.	.	.	.	.	.	.	.	16G/	-gą	.
.	16BLL 16F\	<	16a/LL	16aa\LL	<	.	.	.	.	.	.	.	.	.	.	(16A/LL	wojs-	.
.	16fJ 16A\	.	16g/	16gg\	.	.	.	.	.	.	.	.	.	.	.	16G/JJ)	.	.
.	8BJ 8F\)	[[	16a/	16aa\	.	.	.	.	.	.	.	.	.	.	.	(16A/LL	-ko	.
.	.	.	16bn/JJ)	16bbn\JJ)	[[	.	.	.	.	.	.	.	.	.	.	16B/JJ)	.	.
=8	=8	=8	=8	=8	=8	=8	=8	=8	=8	=8	=8	=8	=8	=8	=8	=8	=8	=8
(4AA/	8r	.	(16cc\LL	(16ccc\LL	.	2ryy	.	2ryy	.	2ryy	.	.	2ryy	.	.	(16c\LL	pły-	.
.	.	.	16dd\JJ	16ddd\JJ	.	.	.	.	.	.	.	.	.	.	.	16d\JJ	.	.
.	(16cLL 16E\	.	4ee\	4eee\	>	.	.	.	.	.	.	.	.	.	.	4e\)	.	.
.	16eJJ 16A\	>	.	.	.	.	.	.	.	.	.	.	.	.	.	.	.	.
4FF#X/)	16cLL 16E\	.	.	.	.	.	.	.	.	.	.	.	.	.	.	.	.	.
.	16eJ 16A\	.	.	.	.	.	.	.	.	.	.	.	.	.	.	.	.	.
.	8cJ 8E\)	]	8cc\)	8ccc\)	]]	.	.	.	.	.	.	.	.	.	.	8c\	-nie,	.
=9	=9	=9	=9	=9	=9	=9	=9	=9	=9	=9	=9	=9	=9	=9	=9	=9	=9	=9
2BBn 2BBBn/	8r	.	(16bn\LL	(16bbn\LL	.	2ryy	.	2ryy	.	2ryy	.	.	2ryy	.	.	16B\	Tło-	.
.	.	.	16cc#X\JJ	16ccc#X\JJ	.	.	.	.	.	.	.	.	.	.	.	16c#X\	-czy	.
.	(16BnLL 16E\	.	4b\	4bb\	.	.	.	.	.	.	.	.	.	.	.	4B\	się	.
.	16eJJ 16G#X\	.	.	.	.	.	.	.	.	.	.	.	.	.	.	.	.	.
.	16BLL 16E\	.	.	.	.	.	.	.	.	.	.	.	.	.	.	.	.	.
.	16eJ 16G#\	.	.	.	.	.	.	.	.	.	.	.	.	.	.	.	.	.
.	8c#XJ 8A#X 8E\)	.	8a#X/)	8aa#X\)	.	.	.	.	.	.	.	.	.	.	.	8A#X/	lud	.
=10	=10	=10	=10	=10	=10	=10	=10	=10	=10	=10	=10	=10	=10	=10	=10	=10	=10	=10
8BBn 8BBBn/	8d#XL 8An 8F#X\	.	(16an/LL	(16aan\LL	.	2ryy	.	2ryy	.	2ryy	.	.	2ryy	.	.	(16AnX/LL	mno-	.
.	.	.	16f#X/JJ)	16ff#X\JJ	.	.	.	.	.	.	.	.	.	.	.	16F#X/JJ)	.	.
4BB 4EE/	(16BnL 16E\	.	4e/	4ee\)	.	.	.	.	.	.	.	.	.	.	.	4E/	-gi.	.
.	16c#XJJ 16G#X\)	.	.	.	.	.	.	.	.	.	.	.	.	.	.	.	.	.
.	8B 8E\	.	.	.	.	.	.	.	.	.	.	.	.	.	.	.	.	.
8r	8r	.	(16d#X/LL	(16dd#X\LL	.	.	.	.	.	.	.	.	.	.	.	8r	.	.
.	.	.	16e/JJ)	16ee\JJ)	.	.	.	.	.	.	.	.	.	.	.	.	.	.
=11||	=11||	=11||	=11||	=11||	=11||	=11||	=11||	=11||	=11||	=11||	=11||	=11||	=11||	=11||	=11||	=11||	=11||	=11||
!	!LO:TX:a:i:t=Più mosso	!	!	!LO:TX:a:i:t=Più mosso	!LO:DY:rj	!	!	!	!	!	!	!	!	!	!	!LO:TX:a:i:t=Più mosso	!	!LO:DY:rj:a
4BBn 4BBBn/	8c#XL 8A'\	f	8f#XL 8d#X'/	8ff#XL 8dd#X'\	f	2ryy	.	2ryy	.	2ryy	.	.	2ryy	.	.	8F#X/	Tło-	f
.	8BnJ 8G#X'\	.	8g#XJ 8e'/	8gg#XJ 8ee'\	.	.	.	.	.	.	.	.	.	.	.	8G#X/	-czy	.
4BB 4BBB/	8r	.	4a 4f#^>/	4aa 4ff#^\	.	.	.	.	.	.	.	.	.	.	.	4A/	się	.
.	8A 8D#X\	.	.	.	.	.	.	.	.	.	.	.	.	.	.	.	.	.
!!LO:LB:g=original
=12	=12	=12	=12	=12	=12	=12	=12	=12	=12	=12	=12	=12	=12	=12	=12	=12	=12	=12
4.BBn 4.BBBn/	8r	.	(16d#X/LL	(16dd#X\LL	.	2ryy	.	2ryy	.	2ryy	.	.	2ryy	.	.	8c#X\	lud	.
.	.	.	16cc#XJJ 16a/)	16ccc#XJJ 16aa\)	.	.	.	.	.	.	.	.	.	.	.	.	.	.
.	4Bn 4G#X 4D#X^\	.	4bn 4g#X^/	4bbn 4gg#X^\	.	.	.	.	.	.	.	.	.	.	.	4B\	mno-	.
8r	8B 8A 8D#\	.	8a 8f#X/	8aa 8ff#X\	.	.	.	.	.	.	.	.	.	.	.	8A/	-gi,	.
=13	=13	=13	=13	=13	=13	=13	=13	=13	=13	=13	=13	=13	=13	=13	=13	=13	=13	=13
4BBn 4EE/	8r	.	8.g#XL 8.e^/	8.gg#XL 8.ee^\	.	2ryy	.	2ryy	.	2ryy	.	.	2ryy	.	.	8.G#X/	Dziar-	.
.	4Bn 4G#X 4E\	.	.	.	.	.	.	.	.	.	.	.	.	.	.	.	.	.
.	.	.	16f#XJk 16d#X'/	16ff#XJk 16dd#X'\	.	.	.	.	.	.	.	.	.	.	.	16F#X/	-sko	.
4BB 4EE/	.	.	8g#L 8e'/	8gg#L 8ee'\	.	.	.	.	.	.	.	.	.	.	.	8G#/	wy-	.
.	8B 8G# 8E\	.	8bnJ 8g#'/	8bbnJ 8gg#'\	.	.	.	.	.	.	.	.	.	.	.	8B\	-śpie-	.
=14	=14	=14	=14	=14	=14	=14	=14	=14	=14	=14	=14	=14	=14	=14	=14	=14	=14	=14
4BBn 4EE/	8r	.	8ee 8g#X/	8eee 8gg#X\	.	2ryy	.	2ryy	.	2ryy	.	.	2ryy	.	.	8e\	-wu-	.
.	4e 4Bn 4G#X\	>	4bn 4g#^/	4bbn 4gg#^\	.	.	.	.	.	.	.	.	.	.	.	4B\	-je.	.
4r	.	.	.	.	.	.	.	.	.	.	.	.	.	.	.	.	.	.
.	8e 8B 8G#\	]	8r	8r	.	.	.	.	.	.	.	.	.	.	.	8r	.	.
=15||	=15||	=15||	=15||	=15||	=15||	=15||	=15||	=15||	=15||	=15||	=15||	=15||	=15||	=15||	=15||	=15||	=15||	=15||
*	*	*	*	*8va	*	*	*	*	*	*	*	*	*	*	*	*	*	*
!	!LO:TX:a:B:t=Più lento	!	!	!LO:TX:a:B:t=Più lento	!LO:DY:rj	!	!	!	!	!	!	!	!	!	!	!LO:TX:a:i:t=Più lento	!	!LO:DY:rj:a
2AA 2AAA/	16r	p	(8.ccnL 8.a/	(8.cccnL 8.aa\	p	2ryy	.	2ryy	.	2ryy	.	.	2ryy	.	.	8.c\	Dziew-	p
.	(16E\LL	.	.	.	.	.	.	.	.	.	.	.	.	.	.	.	.	.
.	16e\	.	.	.	.	.	.	.	.	.	.	.	.	.	.	.	.	.
.	16d\JJ	.	16bnJk 16g#X/	16bbnJk 16gg#X\	.	.	.	.	.	.	.	.	.	.	.	16B\	-czę	.
.	8c\L)	.	8ccL 8a\	8cccL 8aa\	.	.	.	.	.	.	.	.	.	.	.	8c\	mil-	.
.	8dJ 8G#X\	.	8ddJ 8b\)	8dddJ 8bb\)	.	.	.	.	.	.	.	.	.	.	.	8d\	-cząc	.
=16	=16	=16	=16	=16	=16	=16	=16	=16	=16	=16	=16	=16	=16	=16	=16	=16	=16	=16
2E 2AA;/	8r	.	(4ffn 4dd 4g#X;\	(4fffn 4ddd 4gg#X;\	.	2ryy	.	2ryy	.	2ryy	.	.	2ryy	.	.	4f;\	sto-	.
!	!LO:TX:b:t=rallent	!	!	!LO:TX:b:t=rallent	!	!	!	!	!	!	!	!	!	!	!	!LO:TX:b:t=rallent	!	!
.	(8fn 8d 8G#X;\	.	.	.	.	.	.	.	.	.	.	.	.	.	.	.	.	.
.	4e 4c 4A\)	.	4ee 4cc 4a\)	4eee 4ccc 4aa\)	.	.	.	.	.	.	.	.	.	.	.	4e\	-i	.
*	*	*	*	*X8va	*	*	*	*	*	*	*	*	*	*	*	*	*	*
!!LO:LB:g=original
=17	=17	=17	=17	=17	=17	=17	=17	=17	=17	=17	=17	=17	=17	=17	=17	=17	=17	=17
*	*	*	*	*8va	*	*	*	*	*	*	*	*	*	*	*	*	*	*
2r	2r	.	(>4.cc 4.a/	(4.ccc 4.aa\	.	2ryy	.	2ryy	.	2ryy	.	.	2ryy	.	.	4.c\	Ko-	.
.	.	.	8bn 8g#X/)	8bbn 8gg#X/)	.	.	.	.	.	.	.	.	.	.	.	8B\	-goś	.
=18	=18	=18	=18	=18	=18	=18	=18	=18	=18	=18	=18	=18	=18	=18	=18	=18	=18	=18
2r	2r	.	(4cc 4a\	(4ccc 4aa\	.	2ryy	.	2ryy	.	2ryy	.	.	2ryy	.	.	4c\	wy-	.
.	.	.	.	.	>	.	.	.	.	.	.	.	.	.	.	.	.	.
.	.	.	4dd 4bn\)	4ddd 4bbn\)	]]	.	.	.	.	.	.	.	.	.	.	4d\	-a-	.
=19	=19	=19	=19	=19	=19	=19	=19	=19	=19	=19	=19	=19	=19	=19	=19	=19	=19	=19
!	!	!	!	!	!LO:DY:rj	!	!	!	!	!	!	!	!	!	!	!LO:TX:a:t=riten	!	!
2GGn 2GGGn/	16r	pp	2ff 2b-X 2gn\	2fff 2bb-X 2ggn\	pp	2ryy	.	2ryy	.	2ryy	.	.	2ryy	.	.	(2f\	-tru-	.
.	(16C\LL	.	.	.	.	.	.	.	.	.	.	.	.	.	.	.	.	.
!	!LO:TX:b:t=riten	!	!	!	!	!	!	!	!	!	!	!	!	!	!	!	!	!
.	16G\	.	.	.	.	.	.	.	.	.	.	.	.	.	.	.	.	.
.	16c\JJ)	.	.	.	.	.	.	.	.	.	.	.	.	.	.	.	.	.
!	!	!	!	!LO:TX:b:i:t=riten	!	!	!	!	!	!	!	!	!	!	!	!	!	!
.	(16c\LL	.	.	.	.	.	.	.	.	.	.	.	.	.	.	.	.	.
.	16G\	.	.	.	.	.	.	.	.	.	.	.	.	.	.	.	.	.
.	16c\	.	.	.	.	.	.	.	.	.	.	.	.	.	.	.	.	.
.	16d\JJ)	.	.	.	.	.	.	.	.	.	.	.	.	.	.	.	.	.
=20	=20	=20	=20	=20	=20	=20	=20	=20	=20	=20	=20	=20	=20	=20	=20	=20	=20	=20
2GG 2CC/	(4c\	.	(4ee 4b- 4g\	(4eee 4bb- 4gg\	.	2ryy	.	2ryy	.	2ryy	.	.	2ryy	.	.	4e\)	.	.
.	4d 4B- 4C\)	.	4dd 4b- 4e/)	4ddd 4bb- 4ee/)	.	.	.	.	.	.	.	.	.	.	.	4d\	-je.	.
=21||	=21||	=21||	=21||	=21||	=21||	=21||	=21||	=21||	=21||	=21||	=21||	=21||	=21||	=21||	=21||	=21||	=21||	=21||
!	!LO:TX:a:i:t=Tempo Io	!	!	!	!	!	!	!	!	!	!	!	!	!	!	!LO:TX:a:i:t=Tempo Io	!	!LO:DY:rj:a
2FF 2FFF/	8r	f	(<16ccLL 16a 16f/	(<16cccLL 16aa 16ff/	.	2ryy	.	2ryy	.	2ryy	.	.	2ryy	.	.	16c\	Na-	f
!	!	!	!	!LO:TX:b:Bi:t=Tempo Io	!LO:DY:rj	!	!	!	!	!	!	!	!	!	!	!	!	!
.	.	.	16b-/JJ	16bb-/JJ	f	.	.	.	.	.	.	.	.	.	.	16B-\	-gle	.
.	(16cLL 16F\	.	4a/	4aa/	.	.	.	.	.	.	.	.	.	.	.	4A/	pło-	.
.	16dJJ 16A\	.	.	.	.	.	.	.	.	.	.	.	.	.	.	.	.	.
.	16cLL 16F\	.	.	.	.	.	.	.	.	.	.	.	.	.	.	.	.	.
.	16dJ 16A\	.	.	.	.	.	.	.	.	.	.	.	.	.	.	.	.	.
.	8cJ 8F\)	.	8ee\)	8eee\)	.	.	.	.	.	.	.	.	.	.	.	8e\	-mień	.
=22	=22	=22	=22	=22	=22	=22	=22	=22	=22	=22	=22	=22	=22	=22	=22	=22	=22	=22
2C 2FF/	8r	.	(8dd\	(8ddd\	.	2ryy	.	2ryy	.	2ryy	.	.	2ryy	.	.	8d\	buch-	.
.	(16cLL 16F\	.	4cc\)	4ccc\)	.	.	.	.	.	.	.	.	.	.	.	4c\	-nął	.
.	16dJJ 16A\	.	.	.	.	.	.	.	.	.	.	.	.	.	.	.	.	.
.	16cLL 16F\	.	.	.	.	.	.	.	.	.	.	.	.	.	.	.	.	.
.	16dJ 16A\)	.	.	.	.	.	.	.	.	.	.	.	.	.	.	.	.	.
*	*	*	*	*X8va	*	*	*	*	*	*	*	*	*	*	*	*	*	*
.	8e-XJ 8c 8F\	.	8a/	8aa\	.	.	.	.	.	.	.	.	.	.	.	8A/	Po	.
!!LO:PB:g=original
=23	=23	=23	=23	=23	=23	=23	=23	=23	=23	=23	=23	=23	=23	=23	=23	=23	=23	=23
4BB- 4BBB-/	8d-XL 8B- 8F\	.	(16b-\LL	(16bb-\LL	.	2ryy	.	2ryy	.	2ryy	.	.	2ryy	.	.	(16B-\LL	twa-	.
.	.	.	16cc\JJ	16ccc\JJ	.	.	.	.	.	.	.	.	.	.	.	16c\JJ)	.	.
.	(16d-L 16F\	.	4dd-X\)	4ddd-X\)	.	.	.	.	.	.	.	.	.	.	.	4d-X\	-rzy	.
.	16fJJ 16B-\	.	.	.	.	.	.	.	.	.	.	.	.	.	.	.	.	.
4E-X 4EE-X/	16e-XLL 16G\	.	.	.	.	.	.	.	.	.	.	.	.	.	.	.	.	.
.	16fJ 16d-\	.	.	.	.	.	.	.	.	.	.	.	.	.	.	.	.	.
.	8e-J 8G\)	.	(16g/LL	(16gg\LL	.	.	.	.	.	.	.	.	.	.	.	(16G/LL	dziew-	.
.	.	.	16b-/JJ)	16bb-\JJ)	.	.	.	.	.	.	.	.	.	.	.	16B-/JJ)	.	.
=24	=24	=24	=24	=24	=24	=24	=24	=24	=24	=24	=24	=24	=24	=24	=24	=24	=24	=24
4E-X 4AA-X/	8r	.	(16a-X\LL	(16aa-X\LL	.	2ryy	.	2ryy	.	2ryy	.	.	2ryy	.	.	(16A-X/LL	-czę-	.
.	.	.	16cc\J	16ccc\J	.	.	.	.	.	.	.	.	.	.	.	16c/JJ)	.	.
.	(16e-XLL 16A-X\	.	[8ee-X\J)	[8eee-X\J)	.	.	.	.	.	.	.	.	.	.	.	4e-X\	-cia:	.
.	16fJJ 16c\	.	.	.	.	.	.	.	.	.	.	.	.	.	.	.	.	.
4r	8e- 8A-\)	.	16ee-\LL]	16eee-\LL]	.	.	.	.	.	.	.	.	.	.	.	.	.	.
.	.	.	(16cc\	(16ccc\	.	.	.	.	.	.	.	.	.	.	.	.	.	.
.	8r	.	16b-\	16bb-\	.	.	.	.	.	.	.	.	.	.	.	8r	.	.
.	.	.	16a-\JJ)	16aa-\JJ)	.	.	.	.	.	.	.	.	.	.	.	.	.	.
=25||	=25||	=25||	=25||	=25||	=25||	=25||	=25||	=25||	=25||	=25||	=25||	=25||	=25||	=25||	=25||	=25||	=25||	=25||
!	!LO:TX:a:B:t=Più animato	!	!	!LO:TX:a:t=Più animato	!LO:HP:t=cresc	!	!	!	!	!	!	!	!	!	!	!LO:TX:a:i:t=Più animato	!	!
4D-X 4DD-X/	8r	.	(16g/LL	(16gg\LL	<	2ryy	.	2ryy	.	2ryy	.	.	2ryy	.	.	4r	.	.
.	.	.	16f/	16ff\	.	.	.	.	.	.	.	.	.	.	.	.	.	.
!	!	!LO:HP:t=cresc	!	!	!	!	!	!	!	!	!	!	!	!	!	!	!	!
.	8B- 8G 8F\	<	16g/	16gg\	.	.	.	.	.	.	.	.	.	.	.	.	.	.
.	.	.	16b-/JJ)	16bb-\JJ)	.	.	.	.	.	.	.	.	.	.	.	.	.	.
*	*	*	*	*8va	*	*	*	*	*	*	*	*	*	*	*	*	*	*
4BB- 4BBB-/	8r	.	(16dd-X\LL	(16ddd-X\LL	.	.	.	.	.	.	.	.	.	.	.	8.d-X\	Za-	.
.	.	.	16cc\	16ccc\	.	.	.	.	.	.	.	.	.	.	.	.	.	.
.	8d-X 8B- 8F\	.	16b-\	16bb-\	.	.	.	.	.	.	.	.	.	.	.	.	.	.
.	.	.	16cc\JJ)	16ccc\JJ)	.	.	.	.	.	.	.	.	.	.	.	16c\	-krzyk-	.
.	.	.	.	.	.	.	.	.	.	.	.	.	.	.	.	.	.	<
=26	=26	=26	=26	=26	=26	=26	=26	=26	=26	=26	=26	=26	=26	=26	=26	=26	=26	=26
!	!	!	!	!	!LO:DY:rj	!	!	!	!	!	!	!	!	!	!	!	!	!
4GG 4GGG/	8r	.	(16ee-X\LL	(16eee-X\LL	ff	2ryy	.	2ryy	.	2ryy	.	.	2ryy	.	.	8e-X\	-nę-	.
.	.	.	16cc\	16ccc\	.	.	.	.	.	.	.	.	.	.	.	.	.	.
!	!	!LO:DY:rj	!	!	!	!	!	!	!	!	!	!	!	!	!	!	!	!
.	8d-X 8B- 8F^^\	ff	16dd-X\	16ddd-X\	.	.	.	.	.	.	.	.	.	.	.	8d-X\	-ła,	[
.	.	.	16b-\JJ)	16bb-\JJ)	.	.	.	.	.	.	.	.	.	.	.	.	.	.
4r	8g 8d- 8B-^^\	.	(16gg\LL	16ggg\LL	.	.	.	.	.	.	.	.	.	.	.	[4g^\	pa-	.
.	.	.	16ff\	(16fff\	.	.	.	.	.	.	.	.	.	.	.	.	.	.
.	8r	.	16dd-\	16ddd-\	.	.	.	.	.	.	.	.	.	.	.	.	.	.
.	.	.	16ee-\JJ)	16eee-\JJ)	.	.	.	.	.	.	.	.	.	.	.	.	.	.
=27	=27	=27	=27	=27	=27	=27	=27	=27	=27	=27	=27	=27	=27	=27	=27	=27	=27	=27
2r	2r	.	(16ff\LL	(16fff\LL	.	2ryy	.	2ryy	.	2ryy	.	.	2ryy	.	.	2g\_	.	.
.	.	.	16dd-X\	16ddd-X\	.	.	.	.	.	.	.	.	.	.	.	.	.	.
.	.	.	16g\	16gg\	.	.	.	.	.	.	.	.	.	.	.	.	.	.
.	.	.	16a-X\JJ	16aa-X\JJ	.	.	.	.	.	.	.	.	.	.	.	.	.	.
.	.	.	16b-\LL	16bb-\LL	.	.	.	.	.	.	.	.	.	.	.	.	.	.
.	.	.	16a-\	16aa-\	.	.	.	.	.	.	.	.	.	.	.	.	.	.
.	.	.	16b-\	16bb-\	.	.	.	.	.	.	.	.	.	.	.	.	.	.
.	.	.	16cc\JJ	16ccc\JJ	.	.	.	.	.	.	.	.	.	.	.	.	.	.
*	*	*	*	*X8va	*	*	*	*	*	*	*	*	*	*	*	*	*	*
!!LO:LB:g=original
=28	=28	=28	=28	=28	=28	=28	=28	=28	=28	=28	=28	=28	=28	=28	=28	=28	=28	=28
*	*	*	*	*8va	*	*	*	*	*	*	*	*	*	*	*	*	*	*
4r	4r	.	16dd-X\LL	16ddd-X\LL	.	2ryy	.	2ryy	.	2ryy	.	.	2ryy	.	.	4g\]	.	.
.	.	.	16cc\	16ccc\	.	.	.	.	.	.	.	.	.	.	.	.	.	.
.	.	.	16dd-\	16ddd-\	.	.	.	.	.	.	.	.	.	.	.	.	.	.
.	.	.	16ee-X\JJ)	16eee-X\JJ)	.	.	.	.	.	.	.	.	.	.	.	.	.	.
8BB- 8BBB-/	8f 8d-X 8B- 8F\	sfz	8ff^^\	8fff^^\	.	.	.	.	.	.	.	.	.	.	.	8f\	-dła	.
*	*	*	*	*X8va	*	*	*	*	*	*	*	*	*	*	*	*	*	*
8r	8r	.	8r	8r	.	.	.	.	.	.	.	.	.	.	.	8r	.	.
=29	=29	=29	=29	=29	=29	=29	=29	=29	=29	=29	=29	=29	=29	=29	=29	=29	=29	=29
[4F^\	2d-X 2B- 2G^\	.	8r	8r	.	2ryy	.	2ryy	.	2ryy	.	.	2ryy	.	.	8r	.	.
.	.	.	(<16g/LL	(16gg\LL	.	.	.	.	.	.	.	.	.	.	.	8G/	Mi-	.
.	.	.	16b-/JJ	16bb-\JJ	.	.	.	.	.	.	.	.	.	.	.	.	.	.
16F\LL]	.	.	[4dd-X\)	[4ddd-X\)	.	.	.	.	.	.	.	.	.	.	.	([4d-X\	-łe-	.
(16E-X\	.	.	.	.	.	.	.	.	.	.	.	.	.	.	.	.	.	.
16D-X\	.	.	.	.	.	.	.	.	.	.	.	.	.	.	.	.	.	.
16C\JJ	.	.	.	.	.	.	.	.	.	.	.	.	.	.	.	.	.	.
=30	=30	=30	=30	=30	=30	=30	=30	=30	=30	=30	=30	=30	=30	=30	=30	=30	=30	=30
4BB-/)	4f 4d-X 4G\	.	8dd-\L]	8ddd-\L]	.	2ryy	.	2ryy	.	2ryy	.	.	2ryy	.	.	8d-\L]	.	.
.	.	.	(8ff\J	(8fff\J	.	.	.	.	.	.	.	.	.	.	.	8f\J)	.	.
4r	4r	.	8cc\L	8ccc\L	.	.	.	.	.	.	.	.	.	.	.	8c\	-mu	.
.	.	.	8ee-X\J)	8eee-X\J)	.	.	.	.	.	.	.	.	.	.	.	8e-X\	w_ob-	.
=31	=31	=31	=31	=31	=31	=31	=31	=31	=31	=31	=31	=31	=31	=31	=31	=31	=31	=31
!	!	!	!	!	!LO:HP:t=dimin	!	!	!	!	!	!	!	!	!	!	!	!	!
2GG 2GGG/	8r	.	(2dd-X\	(2ddd-X\	>	2ryy	.	2ryy	.	2ryy	.	.	2ryy	.	.	2d-X\	-ję-	.
*	*clefG2	*	*	*	*	*	*	*	*	*	*	*	*	*	*	*	*	*
!	!	!LO:HP:t=dimin	!	!	!	!	!	!	!	!	!	!	!	!	!	!	!	!
.	(16b-LL 16d-X/	>	.	.	.	.	.	.	.	.	.	.	.	.	.	.	.	.
!	!	!	!	!	!	!	!	!	!	!	!	!	!	!	!	!	!	!LO:HP:t=dimin
.	16fJJ 16B-/	.	.	.	.	.	.	.	.	.	.	.	.	.	.	.	.	>
.	16b-LL 16d-/	.	.	.	.	.	.	.	.	.	.	.	.	.	.	.	.	.
.	16fJ 16B-/	.	.	.	.	.	.	.	.	.	.	.	.	.	.	.	.	.
.	8b-J 8d-/)	.	.	.	.	.	.	.	.	.	.	.	.	.	.	.	.	.
=32	=32	=32	=32	=32	=32	=32	=32	=32	=32	=32	=32	=32	=32	=32	=32	=32	=32	=32
!	!	!	!	!LO:TX:b:i:t=sosten	!	!	!	!	!	!	!	!	!	!	!	!LO:TX:a:i:t=sosten	!	!
2C 2CC/	8r	.	2cc\)	2ccc\)	.	2ryy	.	2ryy	.	2ryy	.	.	2ryy	.	.	2c\	-cia	.
!	!LO:TX:a:i:t=sosten.	!	!	!	!	!	!	!	!	!	!	!	!	!	!	!	!	!
.	(16gLL 16B-/	.	.	.	.	.	.	.	.	.	.	.	.	.	.	.	.	.
.	16e-XJJ 16G/	>	.	.	.	.	.	.	.	.	.	.	.	.	.	.	.	.
.	16gLL 16B-/	.	.	.	.	.	.	.	.	.	.	.	.	.	.	.	.	.
.	16e-J 16G/	.	.	.	.	.	.	.	.	.	.	.	.	.	.	.	.	.
.	8gJ 8B-/)	]]	.	.	.	.	.	.	.	.	.	.	.	.	.	.	.	.
*	*clefF4	*	*	*	*	*	*	*	*	*	*	*	*	*	*	*	*	*
!!LO:LB:g=original
=33||	=33||	=33||	=33||	=33||	=33||	=33||	=33||	=33||	=33||	=33||	=33||	=33||	=33||	=33||	=33||	=33||	=33||	=33||
!	!	!LO:DY:rj	!	!	!LO:DY:rj	!	!	!	!	!	!	!	!	!	!	!LO:TX:a:Bi:t=à tempo Io	!	!LO:DY:rj:a
2D 2DD/	8r	p	(16cc\LL	(16ccc\LL	p	2ryy	.	2ryy	.	2ryy	.	.	2ryy	.	.	16c\	Chwi-	p
!	!LO:TX:b:t=à tempo Io	!	!	!LO:TX:b:B:t=à tempo Io	!	!	!	!	!	!	!	!	!	!	!	!	!	!
.	.	.	16b-\JJ	16bb-\JJ	.	.	.	.	.	.	.	.	.	.	.	16B-\	-lę	.
.	(16f#XLL 16c\	.	4a/	4aa\	.	.	.	.	.	.	.	.	.	.	.	4A/	go	.
.	16dJJ 16F#X\	.	.	.	.	.	.	.	.	.	.	.	.	.	.	.	.	.
.	16f#LL 16c\	.	.	.	.	.	.	.	.	.	.	.	.	.	.	.	.	.
.	16dJ 16F#\)	.	.	.	.	.	.	.	.	.	.	.	.	.	.	.	.	.
.	8f#J 8c\	.	8ee-X\)	8eee-X\)	.	.	.	.	.	.	.	.	.	.	.	8e-X\	tu-	.
=34	=34	=34	=34	=34	=34	=34	=34	=34	=34	=34	=34	=34	=34	=34	=34	=34	=34	=34
2FF#X 2FFF#X/	8r	.	(8dd\	(8ddd\	.	2ryy	.	2ryy	.	2ryy	.	.	2ryy	.	.	(8d\	-li-	.
.	(16dLL 16A\	.	4cc\	4ccc\	.	.	.	.	.	.	.	.	.	.	.	4c\)	.	.
.	16cJJ 16D\	.	.	.	.	.	.	.	.	.	.	.	.	.	.	.	.	.
.	16dLL 16A\	.	.	.	.	.	.	.	.	.	.	.	.	.	.	.	.	.
.	16cJ 16D\)	.	.	.	.	.	.	.	.	.	.	.	.	.	.	.	.	.
.	8dJ 8A\	.	8a/)	8aa\)	.	.	.	.	.	.	.	.	.	.	.	8A/	-ła	.
=35	=35	=35	=35	=35	=35	=35	=35	=35	=35	=35	=35	=35	=35	=35	=35	=35	=35	=35
2GG 2GGG/	8r	.	(16b-\LL	(16bb-\LL	.	2ryy	.	2ryy	.	2ryy	.	.	2ryy	.	.	16B-\	Do	.
.	.	.	16cc\JJ	16ccc\JJ	.	.	.	.	.	.	.	.	.	.	.	16c\	drżą-	.
.	(16dLL 16G\	.	4dd\	4ddd\	.	.	.	.	.	.	.	.	.	.	.	4d\	-ce-	.
.	16B-JJ 16D\	.	.	.	.	.	.	.	.	.	.	.	.	.	.	.	.	.
.	16dLL 16G\	.	.	.	.	.	.	.	.	.	.	.	.	.	.	.	.	.
.	16B-J 16D\	.	.	.	.	.	.	.	.	.	.	.	.	.	.	.	.	.
.	8dJ 8G\)	.	16g/LL	16gg\LL	.	.	.	.	.	.	.	.	.	.	.	(16G/LL	-go	.
.	.	.	16b-/JJ)	16bb-\JJ)	.	.	.	.	.	.	.	.	.	.	.	16B-/JJ)	.	.
=36	=36	=36	=36	=36	=36	=36	=36	=36	=36	=36	=36	=36	=36	=36	=36	=36	=36	=36
2C 2CC/	8r	.	(8a/	(8aa\	.	2ryy	.	2ryy	.	2ryy	.	.	2ryy	.	.	8A/	ło-	.
.	(16eLL 16B-\	.	4g/)	4gg\)	.	.	.	.	.	.	.	.	.	.	.	4G/	-na	.
.	16cJJ 16E\	.	.	.	.	.	.	.	.	.	.	.	.	.	.	.	.	.
.	16eLL 16B-\	.	.	.	.	.	.	.	.	.	.	.	.	.	.	.	.	.
.	16cJ 16E\	.	.	.	.	.	.	.	.	.	.	.	.	.	.	.	.	.
!	!	!	!	!	!	!	!	!	!	!	!	!	!	!	!	!	!	!LO:DY:a
.	8eJ 8B-\)	.	8g#X/	8gg#X\	f	.	.	.	.	.	.	.	.	.	.	8G#X/	Wyr-	f
=37||	=37||	=37||	=37||	=37||	=37||	=37||	=37||	=37||	=37||	=37||	=37||	=37||	=37||	=37||	=37||	=37||	=37||	=37||
!	!LO:TX:a:Bi:t=Poco allegro	!	!	!LO:TX:a:B:t=Poco allegro	!	!	!	!	!	!	!	!	!	!	!	!LO:TX:a:B:t=Poco allegro	!	!
4FF^^/	16r	f	(8.a/L	(8.aa\L	.	2ryy	.	2ryy	.	2ryy	.	.	2ryy	.	.	8.A/	-wa-	.
.	(16c 16F\	.	.	.	.	.	.	.	.	.	.	.	.	.	.	.	.	.
.	8f 8A\)	.	.	.	.	.	.	.	.	.	.	.	.	.	.	.	.	.
.	.	.	16b-/Jk	16bb-\Jk	.	.	.	.	.	.	.	.	.	.	.	16B-/	-ła	.
4E-X 4EE-X^^/	16r	.	4cc\)	4ccc\)	.	.	.	.	.	.	.	.	.	.	.	4c\	się,	.
.	(16c 16F\	.	.	.	.	.	.	.	.	.	.	.	.	.	.	.	.	.
.	8f 8A\)	.	.	.	.	.	.	.	.	.	.	.	.	.	.	.	.	.
!!LO:PB:g=original
=38	=38	=38	=38	=38	=38	=38	=38	=38	=38	=38	=38	=38	=38	=38	=38	=38	=38	=38
4D-X 4DD-X^^/	16r	.	(16dd-X\LL	(16ddd-X\LL	.	2ryy	.	2ryy	.	2ryy	.	.	2ryy	.	.	(16d-X\LL	zni-	.
!	!LO:TX:b:t=accelerando-:dur=12es:ext=cd:problem=text with extention lines	!	!	!LO:TX:b:t=accelerando-:dur=16es:ext=cd:problem=text with extention lines	!	!	!	!	!	!	!	!	!	!	!	!	!	!
.	(16d-X 16F\	.	16ee-X\J	16eee-X\J	.	.	.	.	.	.	.	.	.	.	.	16e-X\JJ)	.	.
.	8f 8B-\)	.	8ff\J)	8fff\J)	.	.	.	.	.	.	.	.	.	.	.	8f\	-kła	.
4C 4CC^^/	16r	.	8r	8r	.	.	.	.	.	.	.	.	.	.	.	8r	.	.
.	(16e-X 16F\	.	.	.	.	.	.	.	.	.	.	.	.	.	.	.	.	.
!	!	!	!	!	!	!	!	!	!	!	!	!	!	!	!	!LO:TX:a:t=accelerando-:dur=7qe:ext=cd:problem=text with extention lines	!	!
.	8f 8A\)	.	8ff\	8fff\	.	.	.	.	.	.	.	.	.	.	.	8f\	Dzie-	.
.	.	<	.	.	.	.	.	.	.	.	.	.	.	.	.	.	.	.
=39	=39	=39	=39	=39	=39	=39	=39	=39	=39	=39	=39	=39	=39	=39	=39	=39	=39	=39
4BB- 4BBB-^^/	16r	.	8ff\	8fff\	<	2ryy	.	2ryy	.	2ryy	.	.	2ryy	.	.	8f\	-wczy-	.
.	(16d-X 16F\	.	.	.	.	.	.	.	.	.	.	.	.	.	.	.	.	.
.	8f 8B-\)	.	4ee-X^\	4eee-X^\	.	.	.	.	.	.	.	.	.	.	.	4e-X\	-na	.
4AA-X 4AAA-X^^/	16r	.	.	.	.	.	.	.	.	.	.	.	.	.	.	.	.	.
.	(16d- 16F\	[	.	.	.	.	.	.	.	.	.	.	.	.	.	.	.	.
!	!	!	!	!	!	!	!	!	!	!	!	!	!	!	!	!	!	!LO:DY:a
.	8f 8B-\)	.	16r	16r	[	.	.	.	.	.	.	.	.	.	.	16r	.	ff
.	.	.	16dd-X\	16ddd-X\	ff	.	.	.	.	.	.	.	.	.	.	16d-X\	sza-	.
=40	=40	=40	=40	=40	=40	=40	=40	=40	=40	=40	=40	=40	=40	=40	=40	=40	=40	=40
[2GG [2GGG^^/	8r	ff	[2gg^^\	[2ggg^^\	.	2ryy	.	2ryy	.	2ryy	.	.	2ryy	.	.	2g\	-lo-	.
.	(16dnLL 16F\	.	.	.	.	.	.	.	.	.	.	.	.	.	.	.	.	.
.	16gJJ 16Bn\	.	.	.	.	.	.	.	.	.	.	.	.	.	.	.	.	.
.	16dLL 16F\	.	.	.	.	.	.	.	.	.	.	.	.	.	.	.	.	.
.	16g 16B\	.	.	.	.	.	.	.	.	.	.	.	.	.	.	.	.	.
.	16d 16F\	.	.	.	.	.	.	.	.	.	.	.	.	.	.	.	.	.
.	16gJJ 16B\	.	.	.	.	.	.	.	.	.	.	.	.	.	.	.	.	.
=41	=41	=41	=41	=41	=41	=41	=41	=41	=41	=41	=41	=41	=41	=41	=41	=41	=41	=41
8GG] 8GGG/]	8d 8F\)	.	2gg\]	2ggg\]	.	2ryy	.	2ryy	.	2ryy	.	.	2ryy	.	.	2g\	.	.
8r	8r	.	.	.	.	.	.	.	.	.	.	.	.	.	.	.	.	.
4r	4r	.	.	.	.	.	.	.	.	.	.	.	.	.	.	.	.	.
=42	=42	=42	=42	=42	=42	=42	=42	=42	=42	=42	=42	=42	=42	=42	=42	=42	=42	=42
4r	4r	.	4bn^^\	4bbn^^\	.	2ryy	.	2ryy	.	2ryy	.	.	2ryy	.	.	4B\	-na	.
8r;	8r;	.	8r;	8r;	.	.	.	.	.	.	.	.	.	.	.	8r;	.	.
!	!	!	!	!	!	!	!	!	!	!	!	!	!	!	!	!LO:TX:a:i:t=a tempo	!	!LO:DY:a
8r	8r	.	8b\	8bb\	mf	.	.	.	.	.	.	.	.	.	.	8B\	Wyr-	mf
=43	=43	=43	=43	=43	=43	=43	=43	=43	=43	=43	=43	=43	=43	=43	=43	=43	=43	=43
2C 2CC/	8r	mf	(8.cc\L	(8.ccc\L	.	2ryy	.	2ryy	.	2ryy	.	.	2ryy	.	.	8.c\	-wa-	.
!	!LO:TX:b:i:t=a tempo	!	!	!LO:TX:b:i:t=a tempo	!	!	!	!	!	!	!	!	!	!	!	!	!	!
.	(16cLL 16F\	.	.	.	.	.	.	.	.	.	.	.	.	.	.	.	.	.
.	16fJJ 16A\	.	16dd\Jk)	16ddd\Jk)	.	.	.	.	.	.	.	.	.	.	.	16d\	-ła	.
.	16cLL 16F\	.	4cc\	4ccc\	.	.	.	.	.	.	.	.	.	.	.	4c\	się	.
.	16fJ 16A\	.	.	.	.	.	.	.	.	.	.	.	.	.	.	.	.	.
.	8cJ 8F\)	.	.	.	.	.	.	.	.	.	.	.	.	.	.	.	.	.
!!LO:LB:g=original
=44	=44	=44	=44	=44	=44	=44	=44	=44	=44	=44	=44	=44	=44	=44	=44	=44	=44	=44
4C 4CC/	8r	.	(16dd\LL	(16ddd\LL	<	2r	.	2r	.	2r	.	.	2r	.	.	(16d\LL	zni-	.
.	.	.	16ee\J	16eee\J)	.	.	.	.	.	.	.	.	.	.	.	16e\JJ)	.	.
.	(16dLL 16F\	<	8ff\J)	8fff\J	[	.	.	.	.	.	.	.	.	.	.	8f\	-kła	.
.	16fJJ 16B-\	.	.	.	.	.	.	.	.	.	.	.	.	.	.	.	.	.
!	!	!	!	!	!	!	!	!	!	!	!	!	!	!	!	!	!	!LO:HP:t=cresc
4r	8d 8F\)	[	8r	8r	.	.	.	.	.	.	.	.	.	.	.	8r	.	<
!	!	!	!	!	!LO:HP:t=cresc	!	!	!	!	!	!	!	!	!	!	!	!	!
.	8r	.	8dd\	8ddd\	<	.	.	.	.	.	.	.	.	.	.	8d\	Dziew-	.
=45	=45	=45	=45	=45	=45	=45	=45	=45	=45	=45	=45	=45	=45	=45	=45	=45	=45	=45
*	*	*	*	*8va	*	*	*	*	*	*	*	*	*	*	*	*	*	*
!	!	!LO:HP:t=cresc	!	!	!	!	!	!	!	!	!	!	!	!	!	!	!	!
8CL 8CC/	8r	<	4ee 4cc 4g\	4eee 4ccc 4gg\	.	2r	.	2r	.	2r	.	.	2r	.	.	4e\	-czy-	.
8BB-J 8BBB-/	(16eLL 16G\	.	.	.	.	.	.	.	.	.	.	.	.	.	.	.	.	.
.	16cJJ 16E\)	.	.	.	.	.	.	.	.	.	.	.	.	.	.	.	.	.
4AA 4AAA/	8eL 8G\	.	8ggL 8cc\	8gggL 8ccc\	.	.	.	.	.	.	.	.	.	.	.	8g\	-na	.
!	!	!	!	!	!	!	!	!	!	!	!	!	!	!	!	!	!	!LO:DY:a
.	8fJ 8c 8F\	.	16r	16r	.	.	.	.	.	.	.	.	.	.	.	16r	.	f
.	.	.	16ff\Jk	16fff\Jk	.	.	.	.	.	.	.	.	.	.	.	16f\	sza-	.
=46	=46	=46	=46	=46	=46	=46	=46	=46	=46	=46	=46	=46	=46	=46	=46	=46	=46	=46
!	!	!	!	!	!LO:DY:rj	!	!	!	!	!	!	!	!	!	!	!	!	!
2GG 2GGG^>/	8r	f	2aa 2ff 2bn^\	2aaa 2fff 2bbn^\	f	2r	.	2r	.	2r	.	.	2r	.	.	(2a\	-lo-	.
.	(16aLL 16f\	.	.	.	.	.	.	.	.	.	.	.	.	.	.	.	.	.
.	16Bn\JJ	.	.	.	.	.	.	.	.	.	.	.	.	.	.	.	.	.
.	4a 4f\)	.	.	.	.	.	.	.	.	.	.	.	.	.	.	.	.	.
=47	=47	=47	=47	=47	=47	=47	=47	=47	=47	=47	=47	=47	=47	=47	=47	=47	=47	=47
2C 2CC^>/	2g 2e 2B-X^<\	.	(16eeLL 16b-X\	(16eeeLL 16bb-X\	.	2r	.	2r	.	2r	.	.	2r	.	.	16e\LL	.	.
.	.	.	16ff\JJ)	16fff\JJ)	.	.	.	.	.	.	.	.	.	.	.	16f\JJ)	.	.
.	.	.	4.gg 4.ee 4.b-^\	4.ggg 4.eee 4.bb-^\	.	.	.	.	.	.	.	.	.	.	.	4.g\	.	.
=48	=48	=48	=48	=48	=48	=48	=48	=48	=48	=48	=48	=48	=48	=48	=48	=48	=48	=48
2FF 2FFF^>/	8r	.	4ff 4cc 4a\	4fff 4ccc 4aa\	.	4r	.	4r	.	4r	.	.	4r	.	.	4f\	-na	.
.	(16cLL 16F\	.	.	.	.	.	.	.	.	.	.	.	.	.	.	.	.	.
.	16fJJ 16A\	.	.	.	.	.	.	.	.	.	.	.	.	.	.	.	.	.
.	8c 8F\)	.	8r	8r	.	8r	.	8r	.	8r	.	.	8r	.	.	4r	.	.
!	!	!	!	!	!	!	!LO:DY:rj:a	!	!LO:DY:rj:a	!	!	!LO:DY:rj:a	!	!	!LO:DY:rj:b	!	!	!
.	8r	.	8cc 8a/	8ccc 8aa\	f	8F\	f	8c\	f	8a/	Wyr-	f	8cc\	.	f	.	.	.
=49	=49	=49	=49	=49	=49	=49	=49	=49	=49	=49	=49	=49	=49	=49	=49	=49	=49	=49
!	!	!	!	!LO:TX:b:i:t=poco animato	!	!LO:TX:a:i:t=poco animato	!	!LO:TX:b:i:t=poco animato	!	!LO:TX:a:i:t=poco animato	!	!	!LO:TX:a:i:t=poco animato	!	!	!	!	!
2C 2FF^^/	8r	f	(16b-LL 16g/	(16bb-LL 16gg/	.	8F\	.	8c\	.	(16g/LL	-wa-	.	(16b-\LL	.	.	2r	.	.
.	.	.	16ccJJ 16a/)	16cccJJ 16aa/	.	.	.	.	.	16a/JJ)	.	.	16cc\JJ)	.	.	.	.	.
!	!LO:TX:b:i:t=poco animato	!	!	!	!	!	!	!	!	!	!	!	!	!	!	!	!	!
.	(16cLL 16G\	.	4b- 4g/	4bb- 4gg/)	.	4F\	.	4c\	.	4f/	-ła	.	4b-\	.	.	.	.	.
.	16eJJ 16B-\	.	.	.	.	.	.	.	.	.	.	.	.	.	.	.	.	.
.	8cL 8G\)	.	.	.	.	.	.	.	.	.	.	.	.	.	.	.	.	.
.	8eJ 8B-\	.	8dd\	8ddd 8ee/	.	8F\	.	8B-\	.	8e/	się	.	8dd\	.	.	.	.	.
=50	=50	=50	=50	=50	=50	=50	=50	=50	=50	=50	=50	=50	=50	=50	=50	=50	=50	=50
2C 2FF^^/	8r	.	8dd 8b-\	8ddd 8gg 8ee/	.	8F\	.	8B-/	.	8e/	zni-	.	8dd\	.	.	2r	.	.
.	(16cLL 16F\	.	4cc 4a^>/	4ccc 4aa 4ff^/	.	4F\	.	4A/	.	4f/	-kła	.	4cc\	.	.	.	.	.
.	16fJJ 16A\	.	.	.	.	.	.	.	.	.	.	.	.	.	.	.	.	.
.	8c 8F\)	.	.	.	.	.	.	.	.	.	.	.	.	.	.	.	.	.
.	8r	.	8ff 8a\	8fff 8aa\	.	8F\	.	8c\	.	8a/	Dziew	.	8ff\	.	.	.	.	.
*	*	*	*	*X8va	*	*	*	*	*	*	*	*	*	*	*	*	*	*
!!LO:PB:g=original
=51	=51	=51	=51	=51	=51	=51	=51	=51	=51	=51	=51	=51	=51	=51	=51	=51	=51	=51
*	*	*	*	*8va	*	*	*	*	*	*	*	*	*	*	*	*	*	*
!	!	!	!	!	!	!	!	!	!	!LO:TX:t=P:problem=slur above on staff	!	!	!	!	!	!	!	!
2C 2FF^^/	8r	.	(16eeLL 16g\	(16eeeLL 16gg\	.	8F\	.	8c\	.	(>16g>\LL	.	.	(16ee/LL	-czy-	.	2r	.	.
.	.	.	16ffJJ 16a\	16fffJJ 16aa\	.	.	.	.	.	16a>\JJ)	.	.	16ff/JJ)	.	.	.	.	.
.	(16cLL 16G\	.	4ee 4g\)	4eee 4gg\)	.	4F\	.	4c\	.	4g>\	.	.	4ee/	-na	.	.	.	.
.	16eJJ 16B-\	.	.	.	.	.	.	.	.	.	.	.	.	.	.	.	.	.
.	8c 8G\)	.	.	.	.	.	.	.	.	.	.	.	.	.	.	.	.	.
.	8r	.	8cc 8b-\	8ccc 8bb-\	.	8F\	.	8c\	.	8b->\	.	.	8cc/	sza-	.	.	.	.
=52	=52	=52	=52	=52	=52	=52	=52	=52	=52	=52	=52	=52	=52	=52	=52	=52	=52	=52
4C 4FF/	8r	.	8gg 8b-\	8ggg 8bb-\	.	8F\	.	8c\	.	8b->\	.	.	8gg/	-lo-	.	2r	.	.
.	(16cLL 16F\	.	4ff 4a^\	4fff 4aa^\	.	4F\	.	4c\	.	4a>\	.	.	4ff/	-na.	.	.	.	.
.	16fJJ 16A\	.	.	.	.	.	.	.	.	.	.	.	.	.	.	.	.	.
8r	8cL 8F\)	.	.	.	.	.	.	.	.	.	.	.	.	.	.	.	.	.
8AA/	8e-XJ 8c 8F\	.	8cc 8f/	8ccc 8ff/	.	8A\	.	8e-X\	.	8f>\	.	.	8cc/	Wy-	.	.	.	.
=53	=53	=53	=53	=53	=53	=53	=53	=53	=53	=53	=53	=53	=53	=53	=53	=53	=53	=53
!	!	!	!	!	!	!	!	!	!	!LO:TX:t=P:problem=slur above on staff	!	!	!	!	!	!	!	!
8BB-/L	8dL 8B- 8F\	.	8ddL 8f\	8dddL 8ff\	.	(8B-\L	.	(8d\L	.	(>8f>\L	.	.	(8dd/L	-rwa-	.	2r	.	.
8GG/	8B- 8G\	.	8ff 8dd\	8fff 8ddd\	.	8G\J)	.	8B-\J)	.	8dd>\J)	.	.	8ff/J)	.	.	.	.	.
8AA/	8c 8A\	.	8ee 8cc\	8eee 8ccc\	.	8A\	.	8c\	.	8cc>\	.	.	8ee/	-ła	.	.	.	.
8C/J	8enJ 8c\	.	8aJ 8f\	8aaJ 8ff\	.	8c\	.	8en\	.	8f>\	.	.	8a/	się	.	.	.	.
=54	=54	=54	=54	=54	=54	=54	=54	=54	=54	=54	=54	=54	=54	=54	=54	=54	=54	=54
!	!	!	!	!	!	!	!	!	!	!LO:TX:t=P:problem=slur above on staff	!	!	!	!	!	!	!	!
8BB-/L	8dL 8B-\	.	8b-L 8g/	8bb-L 8gg/	.	(8B-\L	.	(8d\L	.	(>8f>\L	.	.	(<8b-/L	znik-	.	2r	.	.
8GG/	8B- 8G\	.	8dd 8e/	8ddd 8ee/	.	8G\J)	.	8B-\J)	.	8e>\J)	.	.	8dd/J)	.	.	.	.	.
8AA/	8c 8A\	.	8cc 8f/	8ccc 8ff/	.	8A\	.	8c\	.	8f>\	.	.	8cc/	-ła	.	.	.	.
8DJ 8DD/	8Bn\J	.	8aJ 8f/	8aaJ 8ff/	.	8D\	.	8Bn\	.	8f>\	.	.	8a/	Dziew-	.	.	.	.
=55	=55	=55	=55	=55	=55	=55	=55	=55	=55	=55	=55	=55	=55	=55	=55	=55	=55	=55
4.C 4.CC/	4c 4A\	.	4cc 4f/	4ccc 4ff/	.	4C/	.	4A/	.	4f>\	.	.	4cc/	-czy-	.	2r	.	.
*	*	*	*	*X8va	*	*	*	*	*	*	*	*	*	*	*	*	*	*
.	8dL 8B-X\	.	8b-L 8e/	8eeL 8dd\	.	8C/	.	8B-X\	.	8d>\	.	.	8e/	-na	.	.	.	.
8C 8CC/	8cJ 8A\	.	8aJ 8f/	8ffJ 8dd\	.	8C/	.	8A/	.	8d>\	.	.	8f/	sza-	.	.	.	.
=56	=56	=56	=56	=56	=56	=56	=56	=56	=56	=56	=56	=56	=56	=56	=56	=56	=56	=56
[2C [2CC/	[2B- [2G\	.	[2f [2d/	2ddd 2ff 2dd\	.	[>2C/	.	([2B-\	.	(<[<2f>\	.	.	([2dd/	-lo-	.	4r	.	.
.	.	.	.	.	.	.	.	.	.	.	.	.	.	.	.	8r	.	.
!	!	!	!	!	!	!	!	!	!	!	!	!	!	!	!	!	!	!LO:DY:rj
.	.	.	.	.	.	.	.	.	.	.	.	.	.	.	.	8d\	Dziew-	f
!!LO:LB:g=original
=57	=57	=57	=57	=57	=57	=57	=57	=57	=57	=57	=57	=57	=57	=57	=57	=57	=57	=57
!	!	!	!	!	!	!LO:TX:a:t=P:problem=koniec ligatury na dole	!	!	!	!	!	!	!	!	!	!	!	!
2C] 2CC/]	2B-] 2G\]	.	2f] 2d/]	4ddd 4ff 4dd^^\	.	2C/_	.	2B-\_	.	2f>\]	.	.	2dd/]	.	.	4d\	-czy-	.
.	.	.	.	8eeeL 8ee^^\	.	.	.	.	.	.	.	.	.	.	.	8e\	-na	.
.	.	.	.	8fffJ 8ff^^\	.	.	.	.	.	.	.	.	.	.	.	8f\	sza-	.
=58	=58	=58	=58	=58	=58	=58	=58	=58	=58	=58	=58	=58	=58	=58	=58	=58	=58	=58
*	*	*	*	*	*	*	*	*	*	*	*	*	*	*	*	*^	*	*
*tremolo	*	*	*	*	*	*	*	*	*	*2\right	*	*	*	*	*	*	*cue	*	*
!	!	!	!	!	!	!	!	!	!	!	!	!	!	!	!	!LO:TX:b:t=riten	!	!	!
32CC/LLL	4B- 4G^^\	.	4g 4e^^/	4eee 4bb- 4ee^^\	.	2C/_	.	4B-\]	.	2e>\	.	.	2cc/	.	.	(2e\	4e/	-lo-	.
32C/	.	.	.	.	.	.	.	.	.	.	.	.	.	.	.	.	.	.	.
32CC/	.	.	.	.	.	.	.	.	.	.	.	.	.	.	.	.	.	.	.
32C/	.	.	.	.	.	.	.	.	.	.	.	.	.	.	.	.	.	.	.
32CC/	.	.	.	.	.	.	.	.	.	.	.	.	.	.	.	.	.	.	.
!	!LO:TX:b:i:t=riten	!	!	!LO:TX:b:t=riten	!	!	!	!	!	!	!	!	!	!	!	!	!	!	!
32C/	.	.	.	.	.	.	.	.	.	.	.	.	.	.	.	.	.	.	.
32CC/	.	.	.	.	.	.	.	.	.	.	.	.	.	.	.	.	.	.	.
32C/	.	.	.	.	.	.	.	.	.	.	.	.	.	.	.	.	.	.	.
*	*	*	*	*8va	*	*	*	*	*	*	*	*	*	*	*	*	*	*	*
!	!	!	!	!	!	!LO:TX:a:t=riten	!	!LO:TX:b:t=riten	!	!	!	!	!LO:TX:b:t=riten	!	!	!	!	!	!
32CC/	4G^^\	.	4cc 4e^^/	4bbb- 4ggg 4bb-^^\	.	.	.	4G/	.	.	.	.	.	.	.	.	4b-/	.	.
32C/	.	.	.	.	.	.	.	.	.	.	.	.	.	.	.	.	.	.	.
32CC/	.	.	.	.	.	.	.	.	.	.	.	.	.	.	.	.	.	.	.
32C/	.	.	.	.	.	.	.	.	.	.	.	.	.	.	.	.	.	.	.
32CC/	.	.	.	.	.	.	.	.	.	.	.	.	.	.	.	.	.	.	.
32C/	.	.	.	.	.	.	.	.	.	.	.	.	.	.	.	.	.	.	.
32CC/	.	.	.	.	.	.	.	.	.	.	.	.	.	.	.	.	.	.	.
32C/JJJ	.	.	.	.	.	.	.	.	.	.	.	.	.	.	.	.	.	.	.
*	*	*	*	*	*	*	*	*	*	*	*	*	*	*	*	*	*Xcue	*	*
*	*	*	*	*	*	*	*	*	*	*	*	*	*	*	*	*v	*v	*	*
=59	=59	=59	=59	=59	=59	=59	=59	=59	=59	=59	=59	=59	=59	=59	=59	=59	=59	=59
32CC/LLL	4A^^\	.	4dd 4f^^/	4aaa 4fff 4aa^^\	.	2C/]	.	4A/	.	4f>\	.	.	4dd/	.	.	4a\	.	.
32C/	.	.	.	.	.	.	.	.	.	.	.	.	.	.	.	.	.	.
32CC/	.	.	.	.	.	.	.	.	.	.	.	.	.	.	.	.	.	.
32C/	.	.	.	.	.	.	.	.	.	.	.	.	.	.	.	.	.	.
32CC/	.	.	.	.	.	.	.	.	.	.	.	.	.	.	.	.	.	.
32C/	.	.	.	.	.	.	.	.	.	.	.	.	.	.	.	.	.	.
32CC/	.	.	.	.	.	.	.	.	.	.	.	.	.	.	.	.	.	.
32C/	.	.	.	.	.	.	.	.	.	.	.	.	.	.	.	.	.	.
32CC/	4B-^^\	.	4ee 4g^^/	4ggg 4ccc 4gg^^\	.	.	.	4B-/)	.	4g>\)	.	.	4ee/)	.	.	4g\)	.	.
32C/	.	.	.	.	.	.	.	.	.	.	.	.	.	.	.	.	.	.
32CC/	.	.	.	.	.	.	.	.	.	.	.	.	.	.	.	.	.	.
32C/	.	.	.	.	.	.	.	.	.	.	.	.	.	.	.	.	.	.
32CC/	.	.	.	.	.	.	.	.	.	.	.	.	.	.	.	.	.	.
32C/	.	.	.	.	.	.	.	.	.	.	.	.	.	.	.	.	.	.
32CC/	.	.	.	.	.	.	.	.	.	.	.	.	.	.	.	.	.	.
32C/JJJ	.	.	.	.	.	.	.	.	.	.	.	.	.	.	.	.	.	.
*Xtremolo	*	*	*	*	*	*	*	*	*	*	*	*	*	*	*	*	*	*
=60||	=60||	=60||	=60||	=60||	=60||	=60||	=60||	=60||	=60||	=60||	=60||	=60||	=60||	=60||	=60||	=60||	=60||	=60||
*	*	*	*	*	*	*	*	*	*	*2\left	*	*	*	*	*	*	*	*
!	!LO:TX:b:i:t=marcato	!	!	!	!	!	!	!	!	!	!	!	!	!	!	!	!	!
!	!LO:TX:a:Bi:t=Allegro	!LO:DY:rj	!	!LO:TX:a:Bi:t=Allegro	!	!	!	!	!	!	!	!	!LO:TX:a:Bi:t=Allegro	!	!	!LO:TX:a:Bi:t=Allegro	!	!
8CL 8FF/	8AL 8F\	ff	4.ff 4.a^^\	4.fff 4.ccc 4.aa^^\	ff	[2F\	.	[2c\	.	[2a>\	.	.	[2ff/	-na!	.	[2f\	-na!	.
8C 8FF/	8A 8F\	.	.	.	.	.	.	.	.	.	.	.	.	.	.	.	.	.
8C 8FF/	8A 8F\	.	.	.	.	.	.	.	.	.	.	.	.	.	.	.	.	.
8CJ 8FF/	8AJ 8F\	.	(16ee\LL	(16eee\LL	.	.	.	.	.	.	.	.	.	.	.	.	.	.
.	.	.	16dd\JJ)	16ddd\JJ)	.	.	.	.	.	.	.	.	.	.	.	.	.	.
=61	=61	=61	=61	=61	=61	=61	=61	=61	=61	=61	=61	=61	=61	=61	=61	=61	=61	=61
8CL 8FF/	8cL 8A 8F\	.	(16cc\LL	(16ccc\LL	.	2F\_	.	2c\_	.	2a>\_	.	.	2ff/_	.	.	2f\_	.	.
.	.	.	16b-\JJ	16bb-\JJ	.	.	.	.	.	.	.	.	.	.	.	.	.	.
8C 8FF/	8c 8A 8F\	.	4a/)	4aa/)	.	.	.	.	.	.	.	.	.	.	.	.	.	.
8C 8FF/	8c 8A 8F\	.	.	.	.	.	.	.	.	.	.	.	.	.	.	.	.	.
8CJ 8FF/	8cJ 8A 8F\	.	8ee\	8eee\	.	.	.	.	.	.	.	.	.	.	.	.	.	.
=62	=62	=62	=62	=62	=62	=62	=62	=62	=62	=62	=62	=62	=62	=62	=62	=62	=62	=62
*rep	*rep	*	*	*	*	*	*	*	*	*	*	*	*	*	*	*	*	*
8CL 8FF/	8cL 8A 8F\	.	8dd\	8ddd\	.	4F\]	.	4c\]	.	4a>\]	.	.	4ff/]	.	.	4f\]	.	.
8C 8FF/	8c 8A 8F\	.	4cc^^\	4ccc^^\	.	.	.	.	.	.	.	.	.	.	.	.	.	.
8C 8FF/	8c 8A 8F\	.	.	.	.	4r	.	4r	.	4rg>	.	.	4rff	.	.	4r	.	.
8CJ 8FF/	8cJ 8A 8F\	.	8a/	8aa/	.	.	.	.	.	.	.	.	.	.	.	.	.	.
*Xrep	*Xrep	*	*	*	*	*	*	*	*	*	*	*	*	*	*	*	*	*
=63	=63	=63	=63	=63	=63	=63	=63	=63	=63	=63	=63	=63	=63	=63	=63	=63	=63	=63
8DL 8FF/	8dL 8A 8F\	.	(16dd\LL	(16ddd\LL	.	2r	.	2r	.	2ryy	.	.	2r	.	.	2r	.	.
.	.	.	16a\	16aa\	.	.	.	.	.	.	.	.	.	.	.	.	.	.
8D 8FF/	8d 8A 8F\	.	16b-\	16bb-\	.	.	.	.	.	.	.	.	.	.	.	.	.	.
.	.	.	16cc\JJ	16ccc\JJ	.	.	.	.	.	.	.	.	.	.	.	.	.	.
8D 8FF/	8d 8A 8F\	.	16dd\LL	16ddd\LL	.	.	.	.	.	.	.	.	.	.	.	.	.	.
.	.	.	16ee\	16eee\	.	.	.	.	.	.	.	.	.	.	.	.	.	.
8DJ 8FF/	8dJ 8A 8F\	.	16ff\	16fff\	.	.	.	.	.	.	.	.	.	.	.	.	.	.
.	.	.	16gg\JJ)	16ggg\JJ	.	.	.	.	.	.	.	.	.	.	.	.	.	.
=64	=64	=64	=64	=64	=64	=64	=64	=64	=64	=64	=64	=64	=64	=64	=64	=64	=64	=64
4C 4FF^^/	4c 4A 4F^^\	.	4aa\	4aaa\)	.	2r	.	2r	.	2ryy	.	.	2r	.	.	2r	.	.
4r	4r	.	4r	4r	.	.	.	.	.	.	.	.	.	.	.	.	.	.
=65	=65	=65	=65	=65	=65	=65	=65	=65	=65	=65	=65	=65	=65	=65	=65	=65	=65	=65
4FF 4FFF^^/	4c 4A 4F 4C^^\	.	4cc 4a 4f^^/	4fff 4ccc 4aa 4ff^^\	.	2r	.	2r	.	2ryy	.	.	2r	.	.	2r	.	.
4FF 4FFF^^/	4c 4A 4F 4C^^\	.	4cc 4a 4f^^/	4fff 4ccc 4aa 4ff^^\	.	.	.	.	.	.	.	.	.	.	.	.	.	.
=66	=66	=66	=66	=66	=66	=66	=66	=66	=66	=66	=66	=66	=66	=66	=66	=66	=66	=66
4FF 4FFF^^/	4c 4A 4F 4C^^\	.	4cc 4a 4f^^/	4fff 4ccc 4aa 4ff^^\	.	2r	.	2r	.	2ryy	.	.	2r	.	.	2r	.	.
*	*	*	*	*X8va	*	*	*	*	*	*	*	*	*	*	*	*	*	*
4r	4r	.	4r	4r	.	.	.	.	.	.	.	.	.	.	.	.	.	.
==	==	==	==	==	==	==	==	==	==	==	==	==	==	==	==	==	==	==
*-	*-	*-	*-	*-	*-	*-	*-	*-	*-	*-	*-	*-	*-	*-	*-	*-	*-	*-
!!!system-decoration: {<s1>{(g1)}{(p7)}{(p8)}}
!!!RDF**kern: > = above
!!!RDF**kern: < = below
!!!ENC: Andrzej Kubiczek
!!!END: 2021-06-04
!!!ENC: Andrzej Gręziak
!!!END: 2021-05-15
